X:1
T:Toccata and Fugue in D minor (opening)
C:Johann Sebastian Bach (BWV 565)
M:4/4
L:1/16
Q:1/4=76
K:Dm
z12 a4 | agfe d12 | a2 ba gfed d8 |
d2 e2 f2 g2 a8 | bagf edcB A4 G4 |
F4 A4 d4 f4 | e8 d8 |
D4 F4 A4 d4 | D16 |]
